src/assets/Outlink.svg

<svg viewBox="0 0 24 24" fill="none" xmlns="http://www.w3.org/2000/svg">
  <path fill-rule="evenodd" clip-rule="evenodd"
    d="M0 8.15217C0 5.52282 2.11999 3.3913 4.73514 3.3913H10.7676C11.6632 3.3913 12.3892 4.12127 12.3892 5.02174C12.3892 5.9222 11.6632 6.65217 10.7676 6.65217H4.73514C3.91119 6.65217 3.24324 7.32375 3.24324 8.15217V19.2391C3.24324 20.0676 3.91119 20.7391 4.73514 20.7391H15.7622C16.5861 20.7391 17.2541 20.0676 17.2541 19.2391V13.5652C17.2541 12.6648 17.9801 11.9348 18.8757 11.9348C19.7713 11.9348 20.4973 12.6648 20.4973 13.5652V19.2391C20.4973 21.8685 18.3773 24 15.7622 24H4.73514C2.11999 24 0 21.8685 0 19.2391V8.15217Z"
    fill="currentColor" />
  <path fill-rule="evenodd" clip-rule="evenodd"
    d="M13.2324 1.63043C13.2324 0.729971 13.9585 0 14.8541 0H22.3784C23.274 0 24 0.729971 24 1.63043V8.93478C24 9.83525 23.274 10.5652 22.3784 10.5652C21.4828 10.5652 20.7568 9.83525 20.7568 8.93478V5.56665L11.8494 14.5225C11.2161 15.1592 10.1893 15.1592 9.55604 14.5225C8.92276 13.8857 8.92276 12.8534 9.55604 12.2167L18.4634 3.26087H14.8541C13.9585 3.26087 13.2324 2.5309 13.2324 1.63043Z"
    fill="currentColor" />
</svg>

<svg xmlns="http://www.w3.org/2000/svg" fill="none" viewBox="0 0 24 24"><path fill="currentColor" fill-rule="evenodd" d="M0 8.152c0-2.63 2.12-4.76 4.735-4.76h6.033c.895 0 1.621.73 1.621 1.63 0 .9-.726 1.63-1.621 1.63H4.735c-.824 0-1.492.672-1.492 1.5V19.24c0 .829.668 1.5 1.492 1.5h11.027c.824 0 1.492-.671 1.492-1.5v-5.674c0-.9.726-1.63 1.622-1.63.895 0 1.621.73 1.621 1.63v5.674c0 2.63-2.12 4.761-4.735 4.761H4.735C2.12 24 0 21.869 0 19.24z" clip-rule="evenodd"/><path fill="currentColor" fill-rule="evenodd" d="M13.232 1.63c0-.9.727-1.63 1.622-1.63h7.524C23.274 0 24 .73 24 1.63v7.305c0 .9-.726 1.63-1.622 1.63-.895 0-1.621-.73-1.621-1.63V5.567l-8.908 8.956a1.616 1.616 0 0 1-2.293 0 1.637 1.637 0 0 1 0-2.306l8.907-8.956h-3.609c-.895 0-1.622-.73-1.622-1.63" clip-rule="evenodd"/></svg>
